icons/circle/48/multimc.svg

<?xml version="1.0" encoding="UTF-8" standalone="no"?>
<svg
   xmlns:dc="http://purl.org/dc/elements/1.1/"
   xmlns:cc="http://creativecommons.org/ns#"
   xmlns:rdf="http://www.w3.org/1999/02/22-rdf-syntax-ns#"
   xmlns:svg="http://www.w3.org/2000/svg"
   xmlns="http://www.w3.org/2000/svg"
   xmlns:sodipodi="http://sodipodi.sourceforge.net/DTD/sodipodi-0.dtd"
   xmlns:inkscape="http://www.inkscape.org/namespaces/inkscape"
   version="1.1"
   viewBox="0 0 48 48"
   id="svg23"
   sodipodi:docname="multimc-circle.svg"
   inkscape:version="0.92.4 5da689c313, 2019-01-14">
  <metadata
     id="metadata27">
    <rdf:RDF>
      <cc:Work
         rdf:about="">
        <dc:format>image/svg+xml</dc:format>
        <dc:type
           rdf:resource="http://purl.org/dc/dcmitype/StillImage" />
      </cc:Work>
    </rdf:RDF>
  </metadata>
  <sodipodi:namedview
     pagecolor="#ffffff"
     bordercolor="#666666"
     borderopacity="1"
     objecttolerance="10"
     gridtolerance="10"
     guidetolerance="10"
     inkscape:pageopacity="0"
     inkscape:pageshadow="2"
     inkscape:window-width="1920"
     inkscape:window-height="992"
     id="namedview25"
     showgrid="false"
     inkscape:zoom="11.313709"
     inkscape:cx="48.928449"
     inkscape:cy="31.136825"
     inkscape:window-x="0"
     inkscape:window-y="0"
     inkscape:window-maximized="1"
     inkscape:current-layer="svg23"
     inkscape:snap-smooth-nodes="false">
    <inkscape:grid
       type="xygrid"
       id="grid876" />
  </sodipodi:namedview>
  <defs
     id="defs7">
    <linearGradient
       id="bg"
       x2="0"
       y1="1"
       y2="47"
       gradientUnits="userSpaceOnUse">
      <stop
         style="stop-color:#754c24"
         offset="0"
         id="stop2" />
      <stop
         style="stop-color:#654820"
         offset="1"
         id="stop4" />
    </linearGradient>
  </defs>
  <path
     d="m36.31 5c5.859 4.062 9.688 10.831 9.688 18.5 0 12.426-10.07 22.5-22.5 22.5-7.669 0-14.438-3.828-18.5-9.688 1.037 1.822 2.306 3.499 3.781 4.969 4.085 3.712 9.514 5.969 15.469 5.969 12.703 0 23-10.298 23-23 0-5.954-2.256-11.384-5.969-15.469-1.469-1.475-3.147-2.744-4.969-3.781zm4.969 3.781c3.854 4.113 6.219 9.637 6.219 15.719 0 12.703-10.297 23-23 23-6.081 0-11.606-2.364-15.719-6.219 4.16 4.144 9.883 6.719 16.219 6.719 12.703 0 23-10.298 23-23 0-6.335-2.575-12.06-6.719-16.219z"
     style="opacity:.05"
     id="path9" />
  <path
     d="m41.28 8.781c3.712 4.085 5.969 9.514 5.969 15.469 0 12.703-10.297 23-23 23-5.954 0-11.384-2.256-15.469-5.969 4.113 3.854 9.637 6.219 15.719 6.219 12.703 0 23-10.298 23-23 0-6.081-2.364-11.606-6.219-15.719z"
     style="opacity:.1"
     id="path11" />
  <path
     d="m31.25 2.375c8.615 3.154 14.75 11.417 14.75 21.13 0 12.426-10.07 22.5-22.5 22.5-9.708 0-17.971-6.135-21.12-14.75a23 23 0 0 0 44.875-7 23 23 0 0 0-16-21.875z"
     style="opacity:.2"
     id="path13" />
  <circle
     cx="24"
     cy="24"
     r="23"
     style="fill:url(#bg)"
     id="circle15" />
  <path
     d="m40.03 7.531c3.712 4.084 5.969 9.514 5.969 15.469 0 12.703-10.297 23-23 23-5.954 0-11.384-2.256-15.469-5.969 4.178 4.291 10.01 6.969 16.469 6.969 12.703 0 23-10.298 23-23 0-6.462-2.677-12.291-6.969-16.469z"
     style="opacity:.1"
     id="path17" />
  <path
     style="color:#000000;font-style:normal;font-variant:normal;font-weight:normal;font-stretch:normal;font-size:medium;line-height:normal;font-family:sans-serif;font-variant-ligatures:normal;font-variant-position:normal;font-variant-caps:normal;font-variant-numeric:normal;font-variant-alternates:normal;font-feature-settings:normal;text-indent:0;text-align:start;text-decoration:none;text-decoration-line:none;text-decoration-style:solid;text-decoration-color:#000000;letter-spacing:normal;word-spacing:normal;text-transform:none;writing-mode:lr-tb;direction:ltr;text-orientation:mixed;dominant-baseline:auto;baseline-shift:baseline;text-anchor:start;white-space:normal;shape-padding:0;clip-rule:nonzero;display:inline;overflow:visible;visibility:visible;opacity:0.1;isolation:auto;mix-blend-mode:normal;color-interpolation:sRGB;color-interpolation-filters:linearRGB;solid-color:#000000;solid-opacity:1;vector-effect:none;fill:#000000;fill-opacity:1;fill-rule:nonzero;stroke:none;stroke-width:2;stroke-linecap:butt;stroke-linejoin:miter;stroke-miterlimit:4;stroke-dasharray:none;stroke-dashoffset:0;stroke-opacity:1;color-rendering:auto;image-rendering:auto;shape-rendering:auto;text-rendering:auto;enable-background:accumulate"
     d="m 18,19 c -1.722222,0 -3.418979,0.559814 -4.738281,1.585938 C 11.942417,21.612061 11,23.166667 11,25 c 0,1.833333 0.942417,3.387939 2.261719,4.414062 C 14.581021,30.440186 16.277778,31 18,31 c 2.416667,0 4.36275,-1.448688 5.707031,-2.792969 0.808187,-0.808186 0.932047,-1.101902 1.292969,-1.61914 0.360922,0.517238 0.484782,0.810954 1.292969,1.61914 C 27.63725,29.551312 29.583333,31 32,31 33.722222,31 35.418979,30.440186 36.738281,29.414062 38.057583,28.387939 39,26.833333 39,25 39,23.166667 38.057583,21.612061 36.738281,20.585938 35.418979,19.559814 33.722222,19 32,19 29.583333,19 27.63725,20.448688 26.292969,21.792969 25.484782,22.601155 25.360922,22.894871 25,23.412109 24.639078,22.894871 24.515218,22.601155 23.707031,21.792969 22.36275,20.448688 20.416667,19 18,19 Z m 0,2 c 1.583333,0 3.13725,1.051312 4.292969,2.207031 0.898296,0.898297 1.206187,1.438456 1.4375,1.792969 -0.231313,0.354513 -0.539204,0.894672 -1.4375,1.792969 C 21.13725,27.948688 19.583333,29 18,29 16.722222,29 15.418979,28.559814 14.488281,27.835938 13.557583,27.112061 13,26.166667 13,25 13,23.833333 13.557583,22.887939 14.488281,22.164062 15.418979,21.440186 16.722222,21 18,21 Z m 14,0 c 1.277778,0 2.581021,0.440186 3.511719,1.164062 C 36.442417,22.887939 37,23.833333 37,25 37,26.166667 36.442417,27.112061 35.511719,27.835938 34.581021,28.559814 33.277778,29 32,29 30.416667,29 28.86275,27.948688 27.707031,26.792969 26.808735,25.894672 26.500844,25.354513 26.269531,25 c 0.231313,-0.354513 0.539204,-0.894672 1.4375,-1.792969 C 28.86275,22.051312 30.416667,21 32,21 Z"
     id="path882-3"
     inkscape:connector-curvature="0" />
  <path
     style="color:#000000;font-style:normal;font-variant:normal;font-weight:normal;font-stretch:normal;font-size:medium;line-height:normal;font-family:sans-serif;font-variant-ligatures:normal;font-variant-position:normal;font-variant-caps:normal;font-variant-numeric:normal;font-variant-alternates:normal;font-feature-settings:normal;text-indent:0;text-align:start;text-decoration:none;text-decoration-line:none;text-decoration-style:solid;text-decoration-color:#000000;letter-spacing:normal;word-spacing:normal;text-transform:none;writing-mode:lr-tb;direction:ltr;text-orientation:mixed;dominant-baseline:auto;baseline-shift:baseline;text-anchor:start;white-space:normal;shape-padding:0;clip-rule:nonzero;display:inline;overflow:visible;visibility:visible;opacity:1;isolation:auto;mix-blend-mode:normal;color-interpolation:sRGB;color-interpolation-filters:linearRGB;solid-color:#000000;solid-opacity:1;vector-effect:none;fill:#75b54b;fill-opacity:1;fill-rule:nonzero;stroke:none;stroke-width:2;stroke-linecap:butt;stroke-linejoin:miter;stroke-miterlimit:4;stroke-dasharray:none;stroke-dashoffset:0;stroke-opacity:1;color-rendering:auto;image-rendering:auto;shape-rendering:auto;text-rendering:auto;enable-background:accumulate"
     d="m 17,18 c -1.722222,0 -3.418979,0.559814 -4.738281,1.585938 C 10.942417,20.612061 10,22.166667 10,24 c 0,1.833333 0.942417,3.387939 2.261719,4.414062 C 13.581021,29.440186 15.277778,30 17,30 c 2.416667,0 4.36275,-1.448688 5.707031,-2.792969 0.808187,-0.808186 0.932047,-1.101902 1.292969,-1.61914 0.360922,0.517238 0.484782,0.810954 1.292969,1.61914 C 26.63725,28.551312 28.583333,30 31,30 32.722222,30 34.418979,29.440186 35.738281,28.414062 37.057583,27.387939 38,25.833333 38,24 38,22.166667 37.057583,20.612061 35.738281,19.585938 34.418979,18.559814 32.722222,18 31,18 28.583333,18 26.63725,19.448688 25.292969,20.792969 24.484782,21.601155 24.360922,21.894871 24,22.412109 23.639078,21.894871 23.515218,21.601155 22.707031,20.792969 21.36275,19.448688 19.416667,18 17,18 Z m 0,2 c 1.583333,0 3.13725,1.051312 4.292969,2.207031 0.898296,0.898297 1.206187,1.438456 1.4375,1.792969 -0.231313,0.354513 -0.539204,0.894672 -1.4375,1.792969 C 20.13725,26.948688 18.583333,28 17,28 15.722222,28 14.418979,27.559814 13.488281,26.835938 12.557583,26.112061 12,25.166667 12,24 12,22.833333 12.557583,21.887939 13.488281,21.164062 14.418979,20.440186 15.722222,20 17,20 Z m 14,0 c 1.277778,0 2.581021,0.440186 3.511719,1.164062 C 35.442417,21.887939 36,22.833333 36,24 36,25.166667 35.442417,26.112061 34.511719,26.835938 33.581021,27.559814 32.277778,28 31,28 29.416667,28 27.86275,26.948688 26.707031,25.792969 25.808735,24.894672 25.500844,24.354513 25.269531,24 c 0.231313,-0.354513 0.539204,-0.894672 1.4375,-1.792969 C 27.86275,21.051312 29.416667,20 31,20 Z"
     id="path882"
     inkscape:connector-curvature="0" />
</svg>

<svg version="1.1" viewBox="0 0 48 48" xmlns="http://www.w3.org/2000/svg">
 <defs>
  <linearGradient id="bg" x2="0" y1="1" y2="47" gradientUnits="userSpaceOnUse">
   <stop style="stop-color:#754c24" offset="0"/>
   <stop style="stop-color:#654820" offset="1"/>
  </linearGradient>
 </defs>
 <path d="m36.31 5c5.859 4.062 9.688 10.831 9.688 18.5 0 12.426-10.07 22.5-22.5 22.5-7.669 0-14.438-3.828-18.5-9.688 1.037 1.822 2.306 3.499 3.781 4.969 4.085 3.712 9.514 5.969 15.469 5.969 12.703 0 23-10.298 23-23 0-5.954-2.256-11.384-5.969-15.469-1.469-1.475-3.147-2.744-4.969-3.781zm4.969 3.781c3.854 4.113 6.219 9.637 6.219 15.719 0 12.703-10.297 23-23 23-6.081 0-11.606-2.364-15.719-6.219 4.16 4.144 9.883 6.719 16.219 6.719 12.703 0 23-10.298 23-23 0-6.335-2.575-12.06-6.719-16.219z" style="opacity:.05"/>
 <path d="m41.28 8.781c3.712 4.085 5.969 9.514 5.969 15.469 0 12.703-10.297 23-23 23-5.954 0-11.384-2.256-15.469-5.969 4.113 3.854 9.637 6.219 15.719 6.219 12.703 0 23-10.298 23-23 0-6.081-2.364-11.606-6.219-15.719z" style="opacity:.1"/>
 <path d="m31.25 2.375c8.615 3.154 14.75 11.417 14.75 21.13 0 12.426-10.07 22.5-22.5 22.5-9.708 0-17.971-6.135-21.12-14.75a23 23 0 0 0 44.875-7 23 23 0 0 0-16-21.875z" style="opacity:.2"/>
 <circle cx="24" cy="24" r="23" style="fill:url(#bg)"/>
 <path d="m40.03 7.531c3.712 4.084 5.969 9.514 5.969 15.469 0 12.703-10.297 23-23 23-5.954 0-11.384-2.256-15.469-5.969 4.178 4.291 10.01 6.969 16.469 6.969 12.703 0 23-10.298 23-23 0-6.462-2.677-12.291-6.969-16.469z" style="opacity:.1"/>
 <path d="m18 19c-1.7222 0-3.419 0.55981-4.7383 1.5859-1.3193 1.0261-2.2617 2.5807-2.2617 4.4141s0.94242 3.3879 2.2617 4.4141c1.3193 1.0261 3.0161 1.5859 4.7383 1.5859 2.4167 0 4.3628-1.4487 5.707-2.793 0.80819-0.80819 0.93205-1.1019 1.293-1.6191 0.36092 0.51724 0.48478 0.81095 1.293 1.6191 1.3443 1.3443 3.2904 2.793 5.707 2.793 1.7222 0 3.419-0.55981 4.7383-1.5859 1.3193-1.0261 2.2617-2.5807 2.2617-4.4141s-0.94242-3.3879-2.2617-4.4141c-1.3193-1.0261-3.0161-1.5859-4.7383-1.5859-2.4167 0-4.3628 1.4487-5.707 2.793-0.80819 0.80819-0.93205 1.1019-1.293 1.6191-0.36092-0.51724-0.48478-0.81095-1.293-1.6191-1.3443-1.3443-3.2904-2.793-5.707-2.793zm0 2c1.5833 0 3.1372 1.0513 4.293 2.207 0.8983 0.8983 1.2062 1.4385 1.4375 1.793-0.23131 0.35451-0.5392 0.89467-1.4375 1.793-1.1557 1.1557-2.7096 2.207-4.293 2.207-1.2778 0-2.581-0.44019-3.5117-1.1641-0.9307-0.72388-1.4883-1.6693-1.4883-2.8359s0.55758-2.1121 1.4883-2.8359c0.9307-0.72388 2.2339-1.1641 3.5117-1.1641zm14 0c1.2778 0 2.581 0.44019 3.5117 1.1641 0.9307 0.72388 1.4883 1.6693 1.4883 2.8359s-0.55758 2.1121-1.4883 2.8359c-0.9307 0.72388-2.2339 1.1641-3.5117 1.1641-1.5833 0-3.1372-1.0513-4.293-2.207-0.8983-0.8983-1.2062-1.4385-1.4375-1.793 0.23131-0.35451 0.5392-0.89467 1.4375-1.793 1.1557-1.1557 2.7096-2.207 4.293-2.207z" style="color-rendering:auto;color:#000000;dominant-baseline:auto;font-feature-settings:normal;font-variant-alternates:normal;font-variant-caps:normal;font-variant-ligatures:normal;font-variant-numeric:normal;font-variant-position:normal;image-rendering:auto;isolation:auto;mix-blend-mode:normal;opacity:.1;shape-padding:0;shape-rendering:auto;solid-color:#000000;text-decoration-color:#000000;text-decoration-line:none;text-decoration-style:solid;text-indent:0;text-orientation:mixed;text-transform:none;white-space:normal"/>
 <path d="m17 18c-1.7222 0-3.419 0.55981-4.7383 1.5859-1.3193 1.0261-2.2617 2.5807-2.2617 4.4141s0.94242 3.3879 2.2617 4.4141c1.3193 1.0261 3.0161 1.5859 4.7383 1.5859 2.4167 0 4.3628-1.4487 5.707-2.793 0.80819-0.80819 0.93205-1.1019 1.293-1.6191 0.36092 0.51724 0.48478 0.81095 1.293 1.6191 1.3443 1.3443 3.2904 2.793 5.707 2.793 1.7222 0 3.419-0.55981 4.7383-1.5859 1.3193-1.0261 2.2617-2.5807 2.2617-4.4141s-0.94242-3.3879-2.2617-4.4141c-1.3193-1.0261-3.0161-1.5859-4.7383-1.5859-2.4167 0-4.3628 1.4487-5.707 2.793-0.80819 0.80819-0.93205 1.1019-1.293 1.6191-0.36092-0.51724-0.48478-0.81095-1.293-1.6191-1.3443-1.3443-3.2904-2.793-5.707-2.793zm0 2c1.5833 0 3.1372 1.0513 4.293 2.207 0.8983 0.8983 1.2062 1.4385 1.4375 1.793-0.23131 0.35451-0.5392 0.89467-1.4375 1.793-1.1557 1.1557-2.7096 2.207-4.293 2.207-1.2778 0-2.581-0.44019-3.5117-1.1641-0.9307-0.72388-1.4883-1.6693-1.4883-2.8359s0.55758-2.1121 1.4883-2.8359c0.9307-0.72388 2.2339-1.1641 3.5117-1.1641zm14 0c1.2778 0 2.581 0.44019 3.5117 1.1641 0.9307 0.72388 1.4883 1.6693 1.4883 2.8359s-0.55758 2.1121-1.4883 2.8359c-0.9307 0.72388-2.2339 1.1641-3.5117 1.1641-1.5833 0-3.1372-1.0513-4.293-2.207-0.8983-0.8983-1.2062-1.4385-1.4375-1.793 0.23131-0.35451 0.5392-0.89467 1.4375-1.793 1.1557-1.1557 2.7096-2.207 4.293-2.207z" style="color-rendering:auto;color:#000000;dominant-baseline:auto;fill:#75b54b;font-feature-settings:normal;font-variant-alternates:normal;font-variant-caps:normal;font-variant-ligatures:normal;font-variant-numeric:normal;font-variant-position:normal;image-rendering:auto;isolation:auto;mix-blend-mode:normal;shape-padding:0;shape-rendering:auto;solid-color:#000000;text-decoration-color:#000000;text-decoration-line:none;text-decoration-style:solid;text-indent:0;text-orientation:mixed;text-transform:none;white-space:normal"/>
</svg>
